build/category/MultibonusSolid.svg

<svg xmlns="http://www.w3.org/2000/svg" fill="none" viewBox="0 0 24 24" focusable="false"><path d="M0 0H24V24H0z"/><path fill="#74767B" fill-rule="evenodd" d="M6.89847 6.34544C6.61497 5.83739 6.50393 5.2263 6.63701 4.60066L6.65495 4.51632C6.83157 3.68603 7.43959 3.01405 8.24814 2.75555C9.7025 2.29059 11.2067 2.88305 11.9998 4.05236C12.793 2.88305 14.2971 2.29059 15.7515 2.75555C16.5601 3.01405 17.1681 3.68603 17.3447 4.51632L17.3626 4.60066C17.4957 5.2263 17.3847 5.83738 17.1012 6.34543C18.7112 6.39878 20 7.72076 20 9.34375L20 11.9827L20 13.2827L20 17C20 18.6569 18.6569 20 17 20L7 20C5.34315 20 4 18.6569 4 17L4 13.2827L4 11.9827L4 9.34375C4 7.72088 5.28862 6.39897 6.89847 6.34544ZM12.7501 5.63958L12.6558 6.33571L12.656 6.33744L14.9039 6.33744C15.6759 6.33744 16.2517 5.62624 16.0911 4.87114L16.0731 4.7868C15.9936 4.41286 15.7198 4.11023 15.3556 3.99381C14.1643 3.61294 12.918 4.40018 12.7501 5.63958ZM11.2496 5.63958L11.3439 6.33572L11.3437 6.33744L9.09577 6.33744C8.32378 6.33744 7.74794 5.62624 7.90856 4.87114L7.9265 4.7868C8.00605 4.41286 8.27988 4.11023 8.64402 3.99381C9.83533 3.61294 11.0817 4.40018 11.2496 5.63958ZM9.25123 9.89953C9.49412 9.79893 9.7737 9.85454 9.95959 10.0404L12 12.0808L14.0404 10.0404C14.2263 9.85454 14.5058 9.79893 14.7487 9.89953C14.9916 10.0001 15.15 10.2372 15.15 10.5001L15.15 15.5001C15.15 15.859 14.859 16.1501 14.5 16.1501C14.141 16.1501 13.85 15.859 13.85 15.5001L13.85 12.0693L12.4596 13.4597C12.2058 13.7135 11.7942 13.7135 11.5404 13.4597L10.15 12.0693L10.15 15.5001C10.15 15.859 9.85896 16.1501 9.49998 16.1501C9.14099 16.1501 8.84998 15.859 8.84998 15.5001L8.84998 10.5001C8.84998 10.2372 9.00834 10.0001 9.25123 9.89953Z"/></svg>

<svg xmlns="http://www.w3.org/2000/svg" fill="none" viewBox="0 0 24 24" focusable="false"><path fill="#74767B" fill-rule="evenodd" d="M6.89 6.34c-.28-.51-.39-1.12-.26-1.74l.02-.09c.18-.83.78-1.5 1.59-1.76 1.46-.46 2.96.13 3.76 1.3a3.31 3.31 0 0 1 3.75-1.3c.81.26 1.41.93 1.59 1.76l.02.09c.13.62.02 1.23-.26 1.74 1.61.05 2.9 1.38 2.9 3V17c0 1.65-1.35 3-3 3H7c-1.66 0-3-1.35-3-3V9.34c0-1.62 1.28-2.95 2.89-3m5.86-.71-.1.7h2.25c.77 0 1.35-.71 1.19-1.46l-.02-.09c-.08-.37-.36-.67-.72-.79-1.19-.38-2.44.41-2.6 1.64m-1.51 0 .1.7H9.09c-.77 0-1.35-.71-1.19-1.46l.02-.09c.08-.37.35-.67.72-.79 1.19-.38 2.44.41 2.6 1.64M9.25 9.89c.24-.1.52-.04.7.15L12 12.08l2.04-2.04c.18-.19.46-.25.7-.15.25.11.4.34.4.61v5c0 .35-.29.65-.64.65-.36 0-.65-.3-.65-.65v-3.44l-1.4 1.39c-.25.26-.66.26-.91 0l-1.4-1.39v3.44c0 .35-.29.65-.64.65-.36 0-.65-.3-.65-.65v-5c0-.27.15-.5.4-.61"/></svg>
